**kern	**kern
*part1	*part1
*staff2	*staff1
*I"Piano	*
*clefF4	*clefG2
*k[b-]	*k[b-]
*M3/8	*M3/8
=1	=1
4F	16fLL 16a
.	16c
.	16f 16a
.	16c
8r	16g 16b-
.	16cJJ
=	=
4F	16aLL 16cc
.	16c
.	16a 16cc
.	16c
8r	16a 16cc
.	16cJJ
=	=
4C	16gLL 16b-
.	16c
.	16g 16b-
.	16c
8r	16g 16b-
.	16cJJ
=	=
4F	16fLL 16a
.	16c
.	16f 16a
.	16cJJ
8r	16.fLL 16.a 16.cc
.	32fJJk 32a 32cc
=	=
4.r	4f 4a 4cc
.	16.fLL 16.a 16.cc
.	32fJJk 32a 32cc
=	=
4.r	4f 4a 4cc
.	8r
=	=
4F	16aLL
.	16ffJJ
.	16gLL
.	16eeJJ
8r	16fLL
.	16ddJJ
=	=
4G	16eLL
.	16ccJJ
.	16fLL
.	16ddJJ
8r	16dLL
.	16bnJJ
=	=
*-	*-
!!!system-decoration: {(s1,s2)}
